X:60
T: Duidin
S: Tony De Marco
Z: B.Black
R: reel
M: 4/4
L: 1/8
K: D
dcBA FEFA | dcde fgfe | dcBA FEFA | BdcA B2 Bc |
dcBA FEFA | dcde fgfe | dcBA FEFA | BdcA Bcde ||
fdBc dcde | fabf afea | fdBc dcde | fbaf e2 de |
fdBc dcde | fabf afea | bf (3fef af (3fef | bfaf e2 ||
